X:6
T:Hurv efter Bork Julius
R:polska L1
H:efter Oskar Julius Nilsson (1871-1939), Lekvattnet, S\"odra Finnskoga
A:V\"armland
Z:id:hn-L1-6
M:3/4
K:Ddor
A>^c d>e fa|g>b a>e f2|a4 a2|af e>g fd|d>f e^c A2|
A>^c d>e fa|g>b a>e f2|a4 a2|ag f>d e2|^c2 d4:|
|:^c>d e>f de|^c>d e>f de|^c>d e>f d2|d2 e4|
^c>d e>f de|^c>d e>f de|^c>d e>f d2|^c2 d4:|
<end>
<start>
